public/github.svg

<svg width="24" height="24" viewBox="0 0 24 24" fill="none" xmlns="http://www.w3.org/2000/svg">
<path fill-rule="evenodd" clip-rule="evenodd" d="M4.7756 0.00875393L4.77789 0.00907888L4.78137 0.0095788L4.79182 0.0111147L4.82634 0.016408C4.85524 0.0209525 4.89576 0.0275752 4.94663 0.036508C5.04831 0.0543599 5.19183 0.0815202 5.36705 0.11988C5.71631 0.19634 6.19769 0.318638 6.72796 0.503008C7.58005 0.799275 8.65832 1.28942 9.48723 2.08662C10.5299 1.68762 11.721 1.49594 12.8879 1.49028L12.9032 1.49016L12.9221 1.49017L12.941 1.49016L12.9563 1.49028C14.1232 1.49594 15.3144 1.68762 16.357 2.08662C17.1859 1.28942 18.2642 0.799275 19.1163 0.503008C19.6465 0.318638 20.1279 0.19634 20.4772 0.11988C20.6524 0.0815202 20.7959 0.0543599 20.8976 0.036508C20.9485 0.0275752 20.989 0.0209525 21.0179 0.016408L21.0524 0.0111147L21.0628 0.0095788L21.0663 0.00907888L21.0686 0.00875393C21.517 -0.0543562 21.941 0.22976 22.052 0.66767C22.3215 1.73176 22.2845 2.87489 22.0778 3.87426C21.9339 4.56992 21.6973 5.24553 21.3839 5.80605C22.2842 6.93803 23.008 8.4558 22.9999 9.96313C22.9858 12.6187 22.1196 14.4113 20.6786 15.5663C19.6675 16.3768 18.4381 16.8182 17.1992 17.0784C17.2401 17.1702 17.2779 17.2636 17.3125 17.3583C17.5196 17.9256 17.6068 18.5293 17.5689 19.1317V23.1158C17.5689 23.6041 17.172 24 16.6824 24C16.1928 24 15.7959 23.6041 15.7959 23.1158V19.1024C15.7959 19.0817 15.7966 19.061 15.7981 19.0404C15.8239 18.6747 15.7722 18.3077 15.6465 17.9633C15.5207 17.6189 15.3238 17.3048 15.0684 17.0415C14.8348 16.8006 14.7579 16.4486 14.8697 16.1326C14.9815 15.8165 15.2629 15.5907 15.5963 15.5493C17.1867 15.3522 18.5759 14.983 19.568 14.1878C20.5087 13.4339 21.215 12.1946 21.227 9.95374C21.2331 8.79928 20.5404 7.43988 19.6291 6.48457C19.3186 6.15912 19.3022 5.65319 19.5908 5.30836C19.8734 4.9708 20.1734 4.32902 20.3414 3.51694C20.4475 3.0036 20.4923 2.46268 20.4604 1.94245C20.2321 2.00204 19.9729 2.07793 19.6999 2.17287C18.77 2.4962 17.8235 2.99141 17.294 3.68702C17.0361 4.0259 16.5728 4.13351 16.1913 3.94315C15.3076 3.50215 14.1353 3.26109 12.9221 3.25859C11.7089 3.26109 10.5367 3.50215 9.65291 3.94315C9.27143 4.13351 8.80811 4.0259 8.55019 3.68702C8.02076 2.99141 7.07426 2.4962 6.14435 2.17287C5.87129 2.07793 5.61213 2.00204 5.38382 1.94245C5.35188 2.46268 5.39668 3.0036 5.50286 3.51694C5.67084 4.32902 5.9708 4.9708 6.25338 5.30836C6.54205 5.65319 6.5256 6.15912 6.21513 6.48457C5.30381 7.43988 4.61109 8.79928 4.61724 9.95374C4.62917 12.1946 5.33551 13.4339 6.27619 14.1878C7.26828 14.983 8.65753 15.3522 10.2479 15.5493C10.5814 15.5907 10.8627 15.8165 10.9745 16.1326C11.0864 16.4486 11.0094 16.8006 10.7758 17.0415C10.5204 17.3048 10.3235 17.6189 10.1977 17.9633C10.072 18.3077 10.0203 18.6747 10.0461 19.0404C10.0476 19.061 10.0483 19.0817 10.0483 19.1024V23.1158C10.0483 23.6041 9.6514 24 9.16181 24C8.67221 24 8.27532 23.6041 8.27532 23.1158V20.4865C7.33065 20.6283 6.52239 20.582 5.81505 20.3857C4.93128 20.1404 4.27823 19.6813 3.75918 19.2014C3.50334 18.9648 3.27659 18.7199 3.07595 18.4974C3.02395 18.4397 2.97451 18.3845 2.92689 18.3313C2.78288 18.1705 2.65542 18.0282 2.52344 17.8922C2.17433 17.5325 1.92419 17.3608 1.67157 17.2977C1.19661 17.1792 0.907897 16.6991 1.02671 16.2254C1.14552 15.7516 1.62687 15.4637 2.10183 15.5822C2.84719 15.7682 3.38378 16.2361 3.79732 16.6622C3.95652 16.8262 4.11693 17.0054 4.26634 17.1723C4.30997 17.2211 4.35267 17.2688 4.39412 17.3147C4.58617 17.5277 4.7695 17.7242 4.9645 17.9045C5.34714 18.2582 5.75892 18.5345 6.29027 18.682C6.76735 18.8143 7.39899 18.8588 8.26974 18.6939C8.28676 18.2388 8.37487 17.788 8.53177 17.3583C8.56634 17.2636 8.60412 17.1702 8.64503 17.0784C7.40607 16.8182 6.17675 16.3768 5.1656 15.5663C3.72459 14.4113 2.85843 12.6187 2.84428 9.96313C2.83625 8.4558 3.55999 6.93803 4.46031 5.80605C4.14695 5.24553 3.91034 4.56992 3.76645 3.87426C3.55974 2.87489 3.52269 1.73176 3.79226 0.66767C3.9032 0.22976 4.3272 -0.0543562 4.7756 0.00875393Z" fill="black"/>
</svg>

<svg id="Layer_1" data-name="Layer 1" xmlns="http://www.w3.org/2000/svg" viewBox="0 0 22 24"><defs><style>.cls-1{fill:#fff;fill-rule:evenodd;}</style></defs><title>github</title><path class="cls-1" d="M4.78,0h0L5,0l.42.08A13.74,13.74,0,0,1,6.73.5,7.69,7.69,0,0,1,9.49,2.09a9.85,9.85,0,0,1,3.4-.6H13a9.93,9.93,0,0,1,3.4.6A7.61,7.61,0,0,1,19.12.5,13.74,13.74,0,0,1,20.48.12L20.9,0,21,0h.05a.88.88,0,0,1,1,.66,7.36,7.36,0,0,1,0,3.2,6.87,6.87,0,0,1-.7,1.94A6.92,6.92,0,0,1,23,10a6.78,6.78,0,0,1-2.32,5.61,8.16,8.16,0,0,1-3.48,1.51,2.33,2.33,0,0,1,.11.28,4.29,4.29,0,0,1,.26,1.77v4a.89.89,0,0,1-1.77,0V19A2.83,2.83,0,0,0,15.65,18a2.76,2.76,0,0,0-.58-.92.87.87,0,0,1-.2-.91.88.88,0,0,1,.73-.58,7.91,7.91,0,0,0,4-1.36c.94-.76,1.65-2,1.66-4.24a5.53,5.53,0,0,0-1.6-3.47.87.87,0,0,1,0-1.17,4.39,4.39,0,0,0,.75-1.79,6,6,0,0,0,.12-1.58l-.76.23a5.23,5.23,0,0,0-2.41,1.52.88.88,0,0,1-1.1.25,7.51,7.51,0,0,0-3.27-.68,7.57,7.57,0,0,0-3.27.68.88.88,0,0,1-1.1-.25A5.23,5.23,0,0,0,6.14,2.17l-.76-.23A6.48,6.48,0,0,0,5.5,3.52a4.39,4.39,0,0,0,.75,1.79.87.87,0,0,1,0,1.17A5.43,5.43,0,0,0,4.62,10c0,2.24.72,3.48,1.66,4.24a7.91,7.91,0,0,0,4,1.36.88.88,0,0,1,.72.58.87.87,0,0,1-.19.91,2.58,2.58,0,0,0-.73,2v4.08a.89.89,0,0,1-1.77,0V20.49a6,6,0,0,1-2.46-.1A5,5,0,0,1,3.76,19.2c-.26-.24-.48-.48-.68-.7l-.15-.17c-.15-.16-.27-.3-.41-.44a1.86,1.86,0,0,0-.85-.59.89.89,0,0,1,.43-1.72,3.7,3.7,0,0,1,1.7,1.08l.47.51.12.14c.2.22.38.41.57.59a3.19,3.19,0,0,0,1.33.78,4.29,4.29,0,0,0,2,0,4.36,4.36,0,0,1,.26-1.33,2.36,2.36,0,0,1,.12-.28,8.16,8.16,0,0,1-3.48-1.51c-1.45-1.16-2.31-3-2.33-5.61A7,7,0,0,1,4.46,5.81a6.86,6.86,0,0,1-.69-1.94,7.21,7.21,0,0,1,0-3.2A.89.89,0,0,1,4.78,0Z" transform="translate(-1 0)"/></svg>
